artwork/resources/studio/icons/shell/toolbar/build-run-configuration.svg

<svg width="16" height="16" viewBox="0 0 16 16" fill="none" xmlns="http://www.w3.org/2000/svg">
<path d="M15.1076 11.4919C15.5066 11.7191 15.5131 12.2919 15.1193 12.528L10.4085 15.3526C10.0086 15.5924 9.5 15.3043 9.5 14.838L9.5 9.33192C9.5 8.87167 9.99683 8.5828 10.3968 8.81048L15.1076 11.4919Z" fill="#F2FCF3" stroke="#208A3C" stroke-linecap="round"/>
<path fill-rule="evenodd" clip-rule="evenodd" d="M11.7662 2.41719C10.9865 2.00567 10.2006 2 9.59961 2H6.6959L5.7853 2.36424C5.72624 2.38786 5.66322 2.4 5.59961 2.4H4.39961C4.32199 2.4 4.24543 2.38193 4.176 2.34721L3.48158 2H2.09961V4.2H3.48158L4.176 3.85279C4.24543 3.81807 4.32199 3.8 4.39961 3.8H5.59961C5.71314 3.8 5.8233 3.83864 5.91196 3.90957L6.65002 4.50001H8.76626L10.0996 3.5C10.1862 3.43509 10.2914 3.4 10.3996 3.4L10.4214 3.4C11.0096 3.39997 11.5708 3.39994 12.2396 3.595C12.577 3.69342 12.934 3.83877 13.3348 4.04939C12.852 3.17911 12.2931 2.69527 11.7662 2.41719ZM5.42422 4.8L6.1 5.34063V6.89737L5.94469 7.25976C5.65129 7.94437 5.5 8.68145 5.5 9.42629V14.5C5.5 14.7762 5.72386 15 6 15H8.00592C8.002 14.9467 8 14.8927 8 14.838V14H6.5V9.42629C6.5 8.81688 6.62378 8.21381 6.86384 7.65367L7.05957 7.19696C7.08625 7.13472 7.1 7.06772 7.1 7V5.6H8.3V7C8.3 7.06772 8.31375 7.13472 8.34043 7.19696L8.53616 7.65367C8.5635 7.71747 8.58933 7.78182 8.61365 7.84668C8.85653 7.6055 9.15583 7.42553 9.48227 7.3238C9.47342 7.3024 9.46443 7.28105 9.4553 7.25975L9.3 6.89737V5.34971L10.566 4.40019C11.086 4.4018 11.4859 4.41684 11.9596 4.555C12.4863 4.70862 13.1354 5.02538 14.1129 5.70962C14.2884 5.83247 14.5227 5.82986 14.6954 5.70314C14.8681 5.57641 14.9409 5.35372 14.8764 5.14944C14.2454 3.15141 13.2725 2.08144 12.233 1.53281C11.2232 0.999849 10.2194 0.999942 9.61815 0.999997H9.61814L9.59961 1H6.59961C6.536 1 6.47297 1.01214 6.41391 1.03576L5.50332 1.4H4.51764L3.82322 1.05279C3.75379 1.01807 3.67723 1 3.59961 1H1.59961C1.32347 1 1.09961 1.22386 1.09961 1.5V4.7C1.09961 4.97614 1.32347 5.2 1.59961 5.2H3.59961C3.67723 5.2 3.75379 5.18193 3.82322 5.14721L4.51764 4.8H5.42422Z" fill="#6C707E"/>
</svg>

<svg width="16" height="16" viewBox="0 0 16 16" fill="none" xmlns="http://www.w3.org/2000/svg"><path d="M15.108 11.492a.6.6 0 01.011 1.036l-4.71 2.825a.6.6 0 01-.909-.515V9.332a.6.6 0 01.897-.522l4.71 2.682z" fill="#F2FCF3" stroke="#208A3C" stroke-linecap="round"/><path fill-rule="evenodd" clip-rule="evenodd" d="M11.766 2.417C10.986 2.006 10.201 2 9.6 2H6.696l-.91.364A.5.5 0 015.6 2.4H4.4a.5.5 0 01-.224-.053L3.482 2H2.1v2.2h1.382l.694-.347A.5.5 0 014.4 3.8h1.2a.5.5 0 01.312.11l.738.59h2.116l1.334-1a.5.5 0 01.3-.1h.021c.589 0 1.15 0 1.819.195.337.098.694.244 1.095.454-.483-.87-1.042-1.354-1.569-1.632zM5.424 4.8l.676.54v1.557l-.155.363A5.5 5.5 0 005.5 9.426V14.5a.5.5 0 00.5.5h2.006A2.208 2.208 0 018 14.838V14H6.5V9.426a4.5 4.5 0 01.364-1.772l.196-.457A.5.5 0 007.1 7V5.6h1.2V7a.5.5 0 00.04.197l.196.457c.027.063.053.128.078.193.243-.242.542-.421.868-.523a5.423 5.423 0 00-.027-.064L9.3 6.897V5.35l1.266-.95c.52.002.92.017 1.394.155.526.154 1.175.47 2.153 1.155a.5.5 0 00.763-.56c-.63-1.999-1.603-3.069-2.643-3.617C11.223 1 10.219 1 9.618 1H6.6a.5.5 0 00-.186.036l-.91.364h-.986l-.695-.347A.5.5 0 003.6 1h-2a.5.5 0 00-.5.5v3.2a.5.5 0 00.5.5h2a.5.5 0 00.223-.053l.695-.347h.906z" fill="#6C707E"/></svg>
